X:56
T:The Crosses Of Annagh
R:reel
M:4/4
L:1/8
K:Dmaj
|:DFAB B2 AB|defd edBA|DFAB B2 AB|dgfd edBA|
|DFAB B2 AB|defd ef d2|fgaf g2 fe|defd edBA:||
|:defd eA A2|defg afge|defd eB B2|gB B2 dBAB|
|defd e2 fe|defd ed (3Bcd|ABdf bafb|afeg fddA:||

